build/images/home.svg

<svg xmlns="http://www.w3.org/2000/svg" viewBox="0 0 35 33" width="35" height="33"><style/><g id="service"><g id="5"><path id="HOME" d="M34 17.5c0 .83-.67 1.5-1.5 1.5-.4 0-.75-.16-1.02-.41v.01L18.04 5.16 18 5.12 4.55 18.57a1.498 1.498 0 11-2.09-2.15L16.92 1.96c.27-.28.66-.46 1.08-.46h.09c.02 0 .05.01.07.01.37.04.7.21.94.47l5.9 5.9V6.5c0-.83.67-1.5 1.5-1.5s1.5.67 1.5 1.5v4.38l5.6 5.6h-.01c.25.27.41.62.41 1.02zM31 20v10.5c0 .83-.67 1.5-1.5 1.5h-3V20h-6v12h-14c-.83 0-1.5-.67-1.5-1.5V20L18 7l13 13zm-15.5 0h-6v6h6v-6z" fill="#95e1d3"/></g></g></svg>

<svg xmlns="http://www.w3.org/2000/svg" viewBox="0 0 35 33" width="35" height="33">
	<style>
		tspan { white-space:pre }
		.shp0 { fill: #95e1d3 } 
	</style>
	<g id="service">
		<g id="5">
			<path id="HOME" class="shp0" d="M34 17.5C34 18.33 33.33 19 32.5 19C32.1 19 31.75 18.84 31.48 18.59L31.48 18.6L18.04 5.16L18.04 5.16L18 5.12L18 5.12L4.55 18.57L4.55 18.57C4.28 18.83 3.91 19 3.5 19C2.67 19 2 18.33 2 17.5C2 17.07 2.18 16.69 2.46 16.42L16.92 1.96C17.19 1.68 17.58 1.5 18 1.5L18 1.5L18 1.5C18 1.5 18 1.5 18 1.5C18.03 1.5 18.05 1.5 18.08 1.5C18.08 1.5 18.09 1.5 18.09 1.5C18.11 1.5 18.14 1.51 18.16 1.51C18.16 1.51 18.16 1.51 18.16 1.51C18.53 1.55 18.86 1.72 19.1 1.98L19.1 1.98L25 7.88L25 6.5C25 5.67 25.67 5 26.5 5C27.33 5 28 5.67 28 6.5L28 10.88L33.6 16.48L33.59 16.48C33.84 16.75 34 17.1 34 17.5ZM31 20L31 24.5L31 26.5L31 30.5C31 31.33 30.33 32 29.5 32L26.5 32L26.5 20L20.5 20L20.5 32L6.5 32C5.67 32 5 31.33 5 30.5L5 26.5L5 24.5L5 20L18 7L31 20ZM15.5 20L9.5 20L9.5 26L15.5 26L15.5 20Z" />
		</g>
	</g>
</svg>
